Icons/SVG/brands/google-news.svg

<?xml version="1.0" encoding="UTF-8"?><svg id="Google_News" xmlns="http://www.w3.org/2000/svg" viewBox="0 0 24 24"><path d="m20,10v-1H4v1h-1v11h1v1h16v-1h1v-11h-1Zm-7,3h5v1h-5v-1Zm-2,5h-1v1h-4v-1h-1v-4h1v-1h4v1h-3v1h-1v2h1v1h2v-1h1v-1h-2v-1h3v3Zm7,0h-5v-1h5v1Zm-5-2v-1h6v1h-6Z"/><polygon points="23 8 23 12 22 12 22 9 21 9 21 8 16 8 16 6 19 6 19 7 22 7 22 8 23 8"/><polygon points="15 3 10 3 10 4 7 4 7 5 5 5 5 3 6 3 6 2 18 2 18 3 19 3 19 5 15 5 15 3"/><polygon points="14 6 15 6 15 8 3 8 3 9 2 9 2 12 1 12 1 8 2 8 2 7 5 7 5 6 8 6 8 5 11 5 11 4 14 4 14 6"/></svg>

<svg width="24" height="24" viewBox="0 0 24 24" fill="none" xmlns="http://www.w3.org/2000/svg">
<path d="M20 10V9H4V10H3V21H4V22H20V21H21V10H20ZM13 13H18V14H13V13ZM11 18H10V19H6V18H5V14H6V13H10V14H7V15H6V17H7V18H9V17H10V16H8V15H11V18ZM18 18H13V17H18V18ZM13 16V15H19V16H13Z" fill="black"/>
<path d="M23 8V12H22V9H21V8H16V6H19H20V7H22V8H23Z" fill="black"/>
<path d="M15 3H10V4H7V5H5V3H6V2H18V3H19V5H15V3Z" fill="black"/>
<path d="M14 6H15V8H3V9H2V12H1V8H2V7H5V6H8V5H11V4H14V6Z" fill="black"/>
</svg>
